!!!COM:	Busnoys, Antoine
!!!CDT:	~1430///-1492/11/06
!!!OTL:	Le corps s'en va
!!!AGN:	Song; Chanson
!!!SCT:	Bus3036
!!!SCA:	Bus3036
!!!voices:	3
**kern	**kern	**kern
*staff3	*staff2	*staff1
*Ivox	*Ivox	*Ivox
*I"Contratenor	*I"Tenor	*I"Cantus
*I'Ct	*I'T	*I'Cn
*clefF4	*clefF4	*clefG2
*k[]	*k[]	*k[]
*M2/1	*M2/1	*M2/1
*met(C|)	*met(C|)	*met(C|)
=1-	=1-	=1-
!	!	!LO:TX:Z=20:t=Rondeau
0D	1.D	0r
.	4C	.
.	4BB-	.
=2	=2	=2
1E	1C	0r
[1F	[1D	.
=3	=3	=3
2F]	2D]	1.d
2E	2E	.
2D	2F	.
2E	2G	4c
.	.	4B
=4	=4	=4
1AA	1E	1c
2BB	1D	[1d
[2D	.	.
=5	=5	=5
2D]	1r	2d]
2C	.	2e
2BB	1D	2f
2GG	.	2g
=6	=6	=6
2.AA	2.C	1e
8BBL	8BBL	.
8CJ	8AAJ	.
2D	1BB	1d
2F	.	.
=7	=7	=7
1E	1C	1e
1D	1D	2.f
.	.	4e
=8	=8	=8
1r	2E	0c
.	2F	.
[1AA	2E	.
.	[2A	.
=9	=9	=9
2AA]	2A]	1r
2BB	4G	.
.	4F	.
2C	1E	1g
4BB	.	.
4C	.	.
=10	=10	=10
1D	1A	1f
2E	1G	1e
2C	.	.
=11	=11	=11
2D	2F	2d
2BB	2D	1d
1AA	1E	.
.	.	2c#i
=12	=12	=12
1A	[0D	0d
[1F	.	.
=13	=13	=13
2F]	0D]	1r
2G	.	.
[1A	.	1f
=14	=14	=14
2A]	1r	1f
4G	.	.
4A	.	.
1B-i	1BB-	1g
=15	=15	=15
1G	1C	1e
2F	1D	[1d
2G	.	.
=16	=16	=16
1A	1D	2d]
.	.	2c
2.G	1E	1B
4F	.	.
=17	=17	=17
1D	1F	2A
.	.	1d
2r	1E	.
2AA	.	2c
=18	=18	=18
2BB	2D	2d
2D	2F	4c
.	.	4d
2C	2G	2e
2AA	[2A	2f
=19	=19	=19
2C	2A]	2e
2D	2F	4d
.	.	4c
1E	1G	1B
=20	=20	=20
[0AA	1r	0A
.	1A	.
=21	=21	=21
0AA]	1A	1r
.	1A	1e
=22	=22	=22
1r	1A	1e
1D	2.A	1f
.	4G	.
=23	=23	=23
1C	1E	1.g
1C	1E	.
.	.	4f
.	.	4e
=24	=24	=24
1BB-	0F	1d
1FF	.	1c
=25	=25	=25
2GG	1E	1r
2AA	.	.
2BB-i	1D	[1f
2C	.	.
=26	=26	=26
2D	1r	2f]
2E	.	2g
2.F	1d	1a
4E	.	.
=27	=27	=27
1C	1e	1g
2.D	2d	1f
.	[2d	.
4C	.	.
=28	=28	=28
1AA	2d]	1e
.	2c#i	.
2D	[1d	2r
2F	.	2d
=29	=29	=29
2r	2d]	2f
2E	4c	2g
.	4B	.
2A	2c	2a
2G	4d	2b
.	4c	.
=30	=30	=30
1F	1A	2cc
.	.	4b
.	.	4a
1E	1B	2.g#i
.	.	4f#i
=31	=31	=31
[0AAN	0AN	[0aN
=32	=32	=32
0AA_	0r	0a]
=33	=33	=33
0AA]	1c	0r
.	1c	.
=34	=34	=34
0r	1A	1cc
.	1F	1cc
=35	=35	=35
1AA	1r	1a
2.BB-	1B-	1f
4C	.	.
=36	=36	=36
2D	2.A	1r
2F	.	.
.	4F	.
2.E	1G	1b-
4D	.	.
=37	=37	=37
1F	1F	2.a
.	.	4f
2r	1E	1g
2C	.	.
=38	=38	=38
2D	1A	1f
2F	.	.
1C	1G	1e
=39	=39	=39
2FF	2F	2d
1C	2.G	2.e
.	4A	4f
[2BB-	[2B-	[2g
=40	=40	=40
2BB-]	4B-]	4g]
.	4A	4f
4C	4G	4e
4D	4F	4d
1C	1G	2.e
.	.	4d
=41	=41	=41
[0FF	[0F	0f
=42	=42	=42
0FF]	0F]	1r
.	.	1a
=43	=43	=43
1C	1r	1g
1D	1A	1f
=44	=44	=44
2r	1G	1e
2E	.	.
2F	[1F	2d
2D	.	[2a
=45	=45	=45
2F	2F]	2a]
2C	2E	2g
4D	1D	2f
4C	.	.
2BB	.	4e
.	.	4d
=46	=46	=46
1AA	1E	1c
1BB	2D	1d
.	2BB	.
=47	=47	=47
1AA	2C	1e
.	1AA	.
1r	.	1f
.	2BB	.
=48	=48	=48
1AA	2C	1e
.	4BB	.
.	4C	.
2BB	2D	2.d
2C	[2A	.
.	.	4e
=49	=49	=49
1D	2A]	2f
.	4G	4e
.	4F	4d
1C	2G	2e
.	4F	4d
.	4E	4c
=50	=50	=50
1BB	2F	2d
.	4E	4c#i
.	4D	4B
1AA	1E	1c#i
=51	=51	=51
0Al	0Dl	0dl
==	==	==
*-	*-	*-
!!!RDF**kern: l=long note in original notation
!!!RDF**kern: i=editorial accidental
!!!RDF**kern: V=start of tuplet marker
!!!RDF**kern: Z=end of tuplet marker
!!!RDF**kern: N=signum congruentiae
!!!ENC:	Chris Gage 02-12-2015
!!!END:	2015/02/20/
!!!EED:	Jesse Rodin
!!!EEV:	2015/05/10/
!!!ONB:	Translated from MusicXML and edited on 2015/05/10/ by Craig Sapp
!!muse2ps: C^@{COM}^i2I150v95,95,150Q16
